X:138
T: ROTHE KIRSCHEN ESS ICH GERN
N: K2227
O: Europa, Mitteleuropa, Deutschland, Kassel
R: Kinder - Lied, Reigen, Tanz - Spiel, Brautwerbung
M: 2/4
L: 1/8
K: C
 | GGAA | GFEz |
GGAA | G2Ez |
GGAA | GFE2 |
GGAA | GFEz |
GGAA | GFE2 |
GGAA | GFEz |
GGA2 | GFE2 |
GGAA | GFE2

@@@ Tune index: 7475
